packages/core/src/svgs/tokens/mono/MATIC.svg

<svg width="24" height="24" viewBox="0 0 24 24" fill="none" xmlns="http://www.w3.org/2000/svg">
<path d="M6.9058 8.56856C7.09697 8.45749 7.31412 8.39899 7.5352 8.39899C7.75629 8.39899 7.97344 8.45749 8.16461 8.56856L11.041 10.2862L12.994 11.4039L15.8763 13.1214C16.241 13.3449 16.7233 13.3449 17.1292 13.1214L19.4175 11.7803C19.788 11.5568 20.2351 11.145 20.2351 10.698V8.05092C20.2351 7.60386 19.8233 7.1921 19.4116 6.96858L17.1644 5.66272C16.9741 5.55275 16.7579 5.49486 16.538 5.49486C16.3181 5.49486 16.102 5.55275 15.9116 5.66272L13.6586 6.96858C13.2939 7.1921 13.1763 7.60386 13.1763 8.05092V9.76272L11.4116 8.60973V6.88623C11.4116 6.43917 11.294 6.02741 11.7058 5.80388L15.8763 3.34511C16.0667 3.23514 16.2827 3.17725 16.5028 3.17725C16.7226 3.17725 16.9387 3.23514 17.1292 3.34511L21.3703 5.80388C21.5648 5.91036 21.7262 6.06812 21.8372 6.25999C21.9481 6.45187 22.0044 6.6705 21.9997 6.89211V11.8568C21.9997 12.3038 21.7761 12.7097 21.3703 12.939L17.1292 15.3979C16.7586 15.6214 16.2822 15.6214 15.8763 15.3979L12.994 13.7214L11.041 12.5627L8.15873 10.8861C7.96827 10.7762 7.7522 10.7183 7.53227 10.7183C7.31233 10.7183 7.09627 10.7762 6.9058 10.8861L4.65878 12.1921C4.2882 12.4155 3.76467 12.8273 3.76467 13.2743V15.9214C3.76467 16.3684 4.2529 16.7802 4.65878 17.0038L6.9058 18.3449C7.27639 18.5685 7.75874 18.5685 8.16461 18.3449L10.4116 17.0391C10.7822 16.8155 11.4116 16.4037 11.4116 15.9567V14.245L13.1763 15.3979V17.1155C13.1763 17.5625 12.7763 17.9743 12.3705 18.1979L8.11756 20.6507C7.75285 20.8802 7.27051 20.8802 6.86463 20.6507L2.62351 18.192C2.43752 18.0793 2.28291 17.9217 2.17393 17.7336C2.06495 17.5454 2.00513 17.3329 2 17.1155V12.1509C2 11.7038 2.22352 11.292 2.6294 11.0685L6.9058 8.56856Z" fill="white"/>
</svg>

<svg xmlns="http://www.w3.org/2000/svg" width="24" height="24" fill="none" viewBox="0 0 24 24">
    <path fill="#fff" d="M6.906 8.569a1.25 1.25 0 0 1 1.259 0l2.876 1.717 1.953 1.118 2.882 1.717c.365.224.847.224 1.253 0l2.288-1.34c.371-.224.818-.636.818-1.083V8.051c0-.447-.412-.859-.823-1.082l-2.248-1.306a1.25 1.25 0 0 0-1.252 0l-2.253 1.306c-.365.223-.483.635-.483 1.082v1.712L11.412 8.61V6.886c0-.447-.118-.859.294-1.082l4.17-2.459a1.25 1.25 0 0 1 1.253 0l4.241 2.459A1.21 1.21 0 0 1 22 6.892v4.965c0 .447-.224.853-.63 1.082l-4.24 2.459c-.371.223-.848.223-1.254 0l-2.882-1.677-1.953-1.158-2.882-1.677a1.25 1.25 0 0 0-1.253 0l-2.247 1.306c-.37.223-.894.635-.894 1.082v2.647c0 .447.488.86.894 1.083l2.247 1.34c.37.224.853.224 1.259 0l2.247-1.305c.37-.224 1-.635 1-1.082v-1.712l1.764 1.153v1.718c0 .447-.4.858-.806 1.082L8.119 20.65c-.365.23-.847.23-1.253 0l-4.241-2.459A1.3 1.3 0 0 1 2 17.116V12.15c0-.447.224-.859.63-1.082z"/>
</svg>
